icons/mug-outline.svg

<svg width="24" height="24" viewBox="0 0 24 24" fill="none" xmlns="http://www.w3.org/2000/svg">
<path fill-rule="evenodd" clip-rule="evenodd" d="M14.5001 8C15.8334 8 16.5001 8.66667 16.5001 10V11C19.1668 11 20.5001 12.3329 20.5001 14.9986V15.9996C20.5001 18.6665 19.1668 20 16.5001 20C16.5001 21.3333 15.8338 22 14.5011 22H5.5C4.167 22 3.50034 21.3333 3.5 20V10C3.5 8.66667 4.1667 8 5.5001 8H14.5001ZM14.4999 10H5.49987V20H14.4999V10ZM16.5001 13V18C17.7728 18 18.4381 17.3926 18.496 16.1777L18.5001 16V15.0028C18.5001 13.6676 17.8334 13 16.5001 13ZM7.50453 2C8.16791 2 8.49973 2.33333 8.5 3V6C8.49973 6.66667 8.1664 7 7.5 7C6.8336 7 6.50027 6.66667 6.5 6V3C6.5063 2.33333 6.84115 2 7.50453 2ZM11.5 4C12.1664 4 12.4997 4.33333 12.5 5V6C12.4997 6.66667 12.1678 7 11.5043 7C10.8407 7 10.506 6.66667 10.5 6V5C10.5003 4.33333 10.8336 4 11.5 4Z" fill="#3A3A47"/>
</svg>

<svg xmlns="http://www.w3.org/2000/svg" width="24" height="24" viewBox="0 0 24 24">
    <path fill="#3A3A47" fill-rule="evenodd" d="M14.5 8c1.333 0 2 .667 2 2v1c2.667 0 4 1.333 4 3.999v1c0 2.668-1.333 4.001-4 4.001 0 1.333-.666 2-1.999 2H5.5c-1.333 0-2-.667-2-2V10c0-1.333.667-2 2-2h9zm0 2h-9v10h9V10zm2 3v5c1.273 0 1.938-.607 1.996-1.822L18.5 16v-.997c0-1.335-.667-2.003-2-2.003zM7.505 2c.663 0 .995.333.995 1v3c0 .667-.334 1-1 1-.666 0-1-.333-1-1V3c.006-.667.341-1 1.005-1zM11.5 4c.666 0 1 .333 1 1v1c0 .667-.332 1-.996 1-.663 0-.998-.333-1.004-1V5c0-.667.334-1 1-1z"/>
</svg>
